X:1
T:Title
%%score { ( 1 4 ) | ( 2 3 ) }
L:1/8
Q:1/4=100
M:6/8
K:D
V:1 treble nm="Grand Piano"
V:4 treble 
V:2 bass 
V:3 bass 
V:1
 D2 D F2 F | [FA]3 .F3 | E2 E EGF | E6 | G2 G G2 B | B3 .[FA]3 | [FA]2 [FA] F2 [EG] | [FA]6 | %8
w: Charles~Converse * * *||||||||
 [FA]2 [Fd] [Fd]2 [Fd] | [Fd]3 .[FA]3 | B2 G z AB | [FA]6 | D2 D F2 F | [DFA]3 .[A,DF]3 | %14
w: ||||||
 z3 .C3[K:bass] |[M:5/8] [F,D]-[F,D]- [F,D]3 |[M:1/8][K:treble] [DFA] |[M:3/4] [Fd]4 z [Fd] | %18
w: ||||
 e4 cA | G2 GG A[CGB] | [DFA]4 z[K:bass] [F,D] | [F,D]2 [F,D][K:treble] [A,DF]2 [A,DF] | %22
w: ||||
 [DFA]3 [A,DF]2[K:bass] [F,D] | z2[K:treble] z .C3[K:bass] | [F,D]6 |[M:1/8][K:treble] [DFA] | %26
w: ||||
[M:3/4] [Fd]4 z [Fd] | e4 cA | G2 GG A[CGB] | [DFA]4 z[K:bass] [F,D] | %30
w: ||||
 [F,D]2 [F,D][K:treble] [A,DF]2 [A,DF] | [DFA]3 [A,DF]2[K:bass] [F,D] | %32
w: ||
 z2[K:treble] z .C3[K:bass] | [F,D]6 |] %34
w: ||
V:2
 [D,F,]2 [D,F,] [D,A,D]2 [D,A,D] | [D,D]3 .[D,A,D]3 | z3 .C3 | [A,C]6 | %4
 [G,B,D]2 [G,B,D] [G,B,D]2 [G,DG] | [G,DG]3[K:bass] .[D,D]3 | [D,D]2 [D,D] [D,D]2 [D,D] | [D,D]6 | %8
 [D,D]2 [D,A,] [D,A,]2 [D,A,] | [D,A,]3 .[D,D]3 | [G,DG]2 [G,B,] [G,B,]2 [G,DG] | [D,D]6 | %12
 [D,F,]2 [D,F,] [D,A,D]2 [D,A,D] | D,3 .D,3 | A,,2 A,, z A,A,, |[M:5/8] D,-D,- D,3 |[M:1/8] D, | %17
[M:3/4] [D,A,]4 z [D,A,] | [A,CG]4- [A,CG][A,DF] | z2 z E z2[K:bass] | D,4 z D, | D,2 D, D,2 D, | %22
 D,3 D,2 D, | A,,2 .A,,2 A,A,, | D,6 |[M:1/8] D, |[M:3/4] [D,A,]4 z [D,A,] | %27
 [A,CG]4- [A,CG][A,DF] | z2 z E z2[K:bass] | D,4 z D, | D,2 D, D,2 D, | D,3 D,2 D, | %32
 A,,2 .A,,2 A,A,, | D,6 |] %34
V:3
 x6 | x6 | [A,C]2 [A,C] A,-[A,E][A,D] | x6 | x6 | x3[K:bass] x3 | x6 | x6 | x6 | x6 | x6 | x6 | %12
 x6 | x6 | z3 .A,,3 |[M:5/8] x5 |[M:1/8] x |[M:3/4] x6 | x6 | %19
 [A,CE]2 [A,CE][A,C]- [A,CF][K:bass]A, | x6 | x6 | x6 | z2 z .A,,3 | x6 |[M:1/8] x |[M:3/4] x6 | %27
 x6 | [A,CE]2 [A,CE][A,C]- [A,CF][K:bass]A, | x6 | x6 | x6 | z2 z .A,,3 | x6 |] %34
V:4
 x6 | x6 | x6 | x6 | x6 | x6 | x6 | x6 | x6 | x6 | z3 .G3 | x6 | x6 | x6 | %14
 [G,CE]2 [G,CE] [G,E]F[K:bass][G,CE] |[M:5/8] x5 |[M:1/8][K:treble] x |[M:3/4] x6 | x6 | x6 | %20
 x5[K:bass] x | x3[K:treble] x3 | x5[K:bass] x | [G,CE]2[K:treble] [G,CE][G,E] F[K:bass][G,CE] | %24
 x6 |[M:1/8][K:treble] x |[M:3/4] x6 | x6 | x6 | x5[K:bass] x | x3[K:treble] x3 | x5[K:bass] x | %32
 [G,CE]2[K:treble] [G,CE][G,E] F[K:bass][G,CE] | x6 |] %34

